X:1
T:Glasgow Peggy 2
M:4/4
L:1/4
K:D
 F F/2F/2 B, B,| E ^G F3/2 F/2| F F B, B,| A F/2 A B B/4B/4| F F BA/2-B/2|\
 FE/2-F/2 A3/2 F/2| F F B A/2B/2| FE/2-C/2 A,/2 B,3/2|||
